static/card-icons/invisible.svg

<svg height="682.66669" viewBox="0 0 682.66669 682.66669" width="682.66669" xmlns="http://www.w3.org/2000/svg"><g style="fill:none;stroke:#000;stroke-width:30;stroke-linecap:round;stroke-linejoin:round;stroke-miterlimit:10"><path d="m0 0s107.899 150 241 150 241-150 241-150-107.899-150-241-150-241 150-241 150z" transform="matrix(1.3333333 0 0 -1.3333333 19.9999995 341.3333452)"/><path d="m0 0c0 49.706 40.294 90 90 90s90-40.294 90-90-40.294-90-90-90-90 40.294-90 90z" transform="matrix(1.3333333 0 0 -1.3333333 221.3333278 341.3333452)"/><path d="m0 0-482-482" transform="matrix(1.3333333 0 0 -1.3333333 662.6666501 20.0000199)"/></g></svg>

<?xml version="1.0" encoding="UTF-8" standalone="no"?>
<!-- Created with Inkscape (http://www.inkscape.org/) -->

<svg
   version="1.1"
   id="svg2595"
   xml:space="preserve"
   width="682.66669"
   height="682.66669"
   viewBox="0 0 682.66669 682.66669"
   xmlns="http://www.w3.org/2000/svg"
   xmlns:svg="http://www.w3.org/2000/svg"><defs
     id="defs2599"><clipPath
       clipPathUnits="userSpaceOnUse"
       id="clipPath2609"><path
         d="M 0,512 H 512 V 0 H 0 Z"
         id="path2607" /></clipPath></defs><g
     id="g2601"
     transform="matrix(1.3333333,0,0,-1.3333333,0,682.66667)"><g
       id="g2603"><g
         id="g2605"
         clipPath="url(#clipPath2609)"><g
           id="g2611"
           transform="translate(15,256)"><path
             d="M 0,0 C 0,0 107.899,150 241,150 374.101,150 482,0 482,0 482,0 374.101,-150 241,-150 107.899,-150 0,0 0,0 Z"
             style="fill:none;stroke:#000000;stroke-width:30;stroke-linecap:round;stroke-linejoin:round;stroke-miterlimit:10;stroke-dasharray:none;stroke-opacity:1"
             id="path2613" /></g><g
           id="g2615"
           transform="translate(166,256)"><path
             d="M 0,0 C 0,49.706 40.294,90 90,90 139.706,90 180,49.706 180,0 180,-49.706 139.706,-90 90,-90 40.294,-90 0,-49.706 0,0 Z"
             style="fill:none;stroke:#000000;stroke-width:30;stroke-linecap:round;stroke-linejoin:round;stroke-miterlimit:10;stroke-dasharray:none;stroke-opacity:1"
             id="path2617" /></g><g
           id="g2619"
           transform="translate(497,497)"><path
             d="M 0,0 -482,-482"
             style="fill:none;stroke:#000000;stroke-width:30;stroke-linecap:round;stroke-linejoin:round;stroke-miterlimit:10;stroke-dasharray:none;stroke-opacity:1"
             id="path2621" /></g></g></g></g></svg>
